Numix-GalliumOS/48/status/semi-starred.svg

<?xml version="1.0" encoding="UTF-8" standalone="no"?>
<svg
   xmlns:dc="http://purl.org/dc/elements/1.1/"
   xmlns:cc="http://creativecommons.org/ns#"
   xmlns:rdf="http://www.w3.org/1999/02/22-rdf-syntax-ns#"
   xmlns:svg="http://www.w3.org/2000/svg"
   xmlns="http://www.w3.org/2000/svg"
   xmlns:sodipodi="http://sodipodi.sourceforge.net/DTD/sodipodi-0.dtd"
   xmlns:inkscape="http://www.inkscape.org/namespaces/inkscape"
   width="48"
   height="48"
   viewBox="0 0 48 48"
   id="svg2"
   version="1.1"
   inkscape:version="0.91 r13725"
   sodipodi:docname="semi-starred.svg">
  <metadata
     id="metadata18">
    <rdf:RDF>
      <cc:Work
         rdf:about="">
        <dc:format>image/svg+xml</dc:format>
        <dc:type
           rdf:resource="http://purl.org/dc/dcmitype/StillImage" />
        <dc:title></dc:title>
      </cc:Work>
    </rdf:RDF>
  </metadata>
  <defs
     id="defs16" />
  <sodipodi:namedview
     pagecolor="#ffffff"
     bordercolor="#666666"
     borderopacity="1"
     objecttolerance="10"
     gridtolerance="10"
     guidetolerance="10"
     inkscape:pageopacity="0"
     inkscape:pageshadow="2"
     inkscape:window-width="1366"
     inkscape:window-height="704"
     id="namedview14"
     showgrid="true"
     inkscape:zoom="11.313708"
     inkscape:cx="6.6448177"
     inkscape:cy="25.025475"
     inkscape:window-x="0"
     inkscape:window-y="27"
     inkscape:window-maximized="1"
     inkscape:current-layer="svg2">
    <inkscape:grid
       type="xygrid"
       id="grid2995" />
  </sodipodi:namedview>
  <path
     style="color:#000000;fill:#dfdd41;fill-opacity:1"
     d="M 24,2.0058594 C 20.903955,2.1138185 19.149368,13.056655 16.625,14.871094 14.087687,16.694838 3.0441888,14.830855 2.0664062,17.794922 1.0882485,20.760116 11.078838,25.839601 12.033203,28.8125 c 0.95399,2.971714 -4.1827754,12.878724 -1.660156,14.722656 2.52362,1.84465 10.45195,-6.057809 13.580078,-6.044922 0.01439,5.8e-5 0.03229,0.0074 0.04687,0.0078 1.623565,-11.830729 1.438231,-23.661458 0,-35.4921876 z"
     id="path6"
     inkscape:connector-curvature="0"
     sodipodi:nodetypes="cssssccc" />
  <path
     style="opacity:1;fill:#808080;fill-opacity:1;stroke:none;stroke-width:0.5;stroke-linecap:round;stroke-linejoin:round;stroke-miterlimit:4;stroke-dasharray:none;stroke-opacity:1"
     d="M 24.050781 2 C 24.033595 1.9999314 24.017104 2.005263 24 2.0058594 L 24 37.498047 C 27.155289 37.58372 34.910372 45.546476 37.435547 43.730469 C 39.973392 41.905351 34.894108 31.875098 35.873047 28.910156 C 36.851581 25.946398 46.890319 20.961699 45.935547 17.990234 C 44.980401 15.017585 33.902025 16.814055 31.378906 14.96875 C 28.856756 13.124163 27.177691 2.0120745 24.050781 2 z "
     id="rect4136" />
</svg>

<svg xmlns="http://www.w3.org/2000/svg" viewBox="0 0 48 48">
 <path d="m 24 2.01 c -3.096 0.108 -4.851 11.05 -7.375 12.865 -2.537 1.824 -13.581 -0.04 -14.559 2.924 -0.978 2.965 9.01 8.04 9.967 11.02 c 0.954 2.972 -4.183 12.879 -1.66 14.723 2.524 1.845 10.452 -6.06 13.58 -6.04 0.014 0 0.032 0.007 0.047 0.008 1.624 -11.831 1.438 -23.661 0 -35.492 z" style="fill:#dfdd41;fill-opacity:1;color:#000"/>
 <path d="m 24.05 2 c -0.017 0 -0.034 0.005 -0.051 0.006 l 0 35.492 c 3.155 0.086 10.91 8.05 13.436 6.232 c 2.538 -1.825 -2.541 -11.855 -1.563 -14.82 c 0.979 -2.964 11.02 -7.948 10.06 -10.92 c -0.955 -2.973 -12.03 -1.176 -14.557 -3.02 c -2.522 -1.845 -4.201 -12.957 -7.328 -12.969 z" style="fill:#808080;opacity:1;fill-opacity:1;stroke:none"/>
</svg>
